X: 6026
T: Cap And Bells
R: reel
M: 4/4
K: Dmajor
d~F3 A2FA|dfec dAFA|B~G3 GBde|f2(3def edBc|
d~F3 A2FA|dfec dcBA|~G3A Bdeg|1 fdec Addc:|2 fdec Adde||
f~a3 afdf|bagf gfed|Be~e2 gfed|Beba- agfe|
f~a3 fade|f2ec dcBA|~G3A Bdeg|1 fdec Adde:|2 fdec Addc||

